X: 34
P: No. XXXIV.
M: 3/4
L: 1/8
Q: "Slow"
K: G
V: 1
|: g2 |\
V: 2 clef=bass middle=d
z2 | g2 f2 d2 | e2 c2 g2 | f2 d2 c2 | B2 G2 z2 |\
g2 G2 g2 | e2 c2 g2 | c2 d2 D2 | G4 :|
|: z2 |\
g2 d2 e2 | d2 c2 B2 | c2 c'2 g2 | c4 B2 |\

